X: 1
T: Speedy Life in Paris
C: Pascaline Latour
R: jig
Z: 2019 John Chambers <jc:trillian.mit.edu>
M: 6/8
L: 1/8
K: F
cde |\
"F"f2f f2f | "F"a2f c2A | "Gm"G2B d2g | "C"e2c =Bcd |\
"C"e2g c2e | "C7"G2c E2B | "F"A2A AB=B | "C"c2e "C7"efg ||
"F"a^ga fef | "F"cA2 f2c | "Bb"d^cd BAB | "Gm"G2d g2f |\
"C"e2d c2=B | "C"c2d e2g | "F"f2z"C7"c2z| "F"F2z:|
